X: 1
T: Hedgehog Waltz
C: lydia ievins (6/26/09)
R: waltz
Z: 2021 John Chambers <jc:trillian.mit.edu>
M: 3/4
L: 1/8
K: A
e2 |\
(e2a2)e2 | c2(ed)cB | A2c2e2 | a3ga2 |\
b2eee2 | (e2f2)g2 | a2cde2 | Bcd2(cB) |
(A2a2)e2 | c2ABc2 | d2(dc)de | (f2g2)a2 |\
e2A2af | e2cde2 | (B2b2)g2 | a4 :|
|: (dc) |\
B2E2e2 | B2EFG2 | A2(ag)af | e4ef |\
(g2b2)(ef) | gab2g2 | a2A2dc | B4E2 |
A2E2c2 | E2d2E2 | e2(AB)cA | d2fga2 |\
e2A2f2 | A2g2a2 | b2bag2 | a4 :|
